X:886
T:Gubbstöt
T:efter Pelle Fors
O:Vikbolandet, Östergötland
S:efter Pelle Fors
B:Låtar efter Pelle Fors
R:Gubbstöt
Z:Björn Ek 2009-01-01
M:3/4
L:1/8
K:G
%
|:G>F G2 FE|DF A2 A2|(c/d/c/B/) c2 BA|A>d d2 F2|
G>F G2 FE|DF A2 A2|(c/d/c/B/) cA FA|G2 G4:|
%
|:Bc d2 g2|!trill!gf f2 f2|AB c2 e2|!trill!ed d2 d2|
!trill!d2 cB cd|!trill!c2 BA Bc|!trill!B2 AG FA|G2 G4:|
%
(:musicend:)

(:music:)
